X:65
T:Reel 65
M:4/4
K:Emin
L:1/8
ed|B>E (3EEE B>E (3EDE |ADFD A2GA|B>e (3EEE B,>E (3EDE |ADDF A2dA|B>E (3EEE B,>E (3EDE |BEEF G2 (3FGA |BAdB AFDF|GEFD E2|GA|Bee^d e2e=d|BABc dBAF|D2DD dcdA|dcdB AD (3FED |Beed e2de|Bedf edBc|dAGF dBAF|EEFD E2|
